static/img/ai-cta-without-icon.svg

<svg width="172" height="32" viewBox="0 0 172 32" fill="none" xmlns="http://www.w3.org/2000/svg">
<rect x="0.5" y="0.5" width="171" height="31" rx="3.5" fill="white"/>
<rect x="0.5" y="0.5" width="171" height="31" rx="3.5" stroke="#BFBFC3"/>
<path d="M16.4912 21.1777C14.2832 21.1777 12.9092 20.043 12.793 18.334H14.126C14.2285 19.4893 15.2949 20.0156 16.4912 20.0156C17.8721 20.0156 18.9248 19.291 18.9248 18.2041C18.9248 17.2197 17.9951 16.8574 16.9082 16.5498L15.6777 16.2012C14.0371 15.7363 13.0801 14.8955 13.0801 13.542C13.0801 11.8193 14.6113 10.6777 16.5801 10.6777C18.5898 10.6777 19.9912 11.8467 20.0527 13.3848H18.7812C18.665 12.3936 17.749 11.8262 16.5391 11.8262C15.2197 11.8262 14.3447 12.5234 14.3447 13.4805C14.3447 14.5469 15.541 14.9229 16.2861 15.1279L17.3047 15.4082C18.3984 15.709 20.1895 16.3242 20.1895 18.2246C20.1895 19.8926 18.8428 21.1777 16.4912 21.1777ZM24.6533 21.0957C23.1084 21.0957 22.0625 20.1455 22.0625 18.2109V13.3574H23.293V18.1084C23.293 19.2842 23.9561 19.9883 25.0225 19.9883C26.1162 19.9883 26.9434 19.2432 26.9434 17.9375V13.3574H28.1807V21H26.9912V19.1475H27.1553C26.6836 20.583 25.7744 21.0957 24.6533 21.0957ZM30.3477 21V13.3574H31.5439L31.5508 15.0664H31.4551C31.7627 13.8291 32.6992 13.2207 33.6904 13.2207C34.7979 13.2207 35.502 13.9727 35.707 15.0801H35.543C35.8164 13.9385 36.8281 13.2207 38.0449 13.2207C39.3711 13.2207 40.4512 14.0752 40.4512 15.8457V21H39.2139V15.8799C39.2139 14.7793 38.4961 14.3418 37.6758 14.3418C36.6436 14.3418 36.0146 15.0459 36.0146 16.0098V21H34.7842V15.7568C34.7842 14.9092 34.1484 14.3418 33.2871 14.3418C32.3916 14.3418 31.5781 14.9707 31.5781 16.1875V21H30.3477ZM42.6113 21V13.3574H43.8076L43.8145 15.0664H43.7188C44.0264 13.8291 44.9629 13.2207 45.9541 13.2207C47.0615 13.2207 47.7656 13.9727 47.9707 15.0801H47.8066C48.0801 13.9385 49.0918 13.2207 50.3086 13.2207C51.6348 13.2207 52.7148 14.0752 52.7148 15.8457V21H51.4775V15.8799C51.4775 14.7793 50.7598 14.3418 49.9395 14.3418C48.9072 14.3418 48.2783 15.0459 48.2783 16.0098V21H47.0479V15.7568C47.0479 14.9092 46.4121 14.3418 45.5508 14.3418C44.6553 14.3418 43.8418 14.9707 43.8418 16.1875V21H42.6113ZM57.0146 21.1777C55.5654 21.1777 54.4102 20.3301 54.4102 18.8262C54.4102 17.0762 55.9688 16.7549 57.3838 16.5771C58.7441 16.4062 59.3457 16.4473 59.3457 15.8799V15.8389C59.3457 14.8887 58.8057 14.3418 57.7461 14.3418C56.6455 14.3418 56.0508 14.9297 55.8115 15.4629L54.6289 15.0732C55.2168 13.6855 56.5293 13.2617 57.7119 13.2617C58.7373 13.2617 60.5762 13.5762 60.5762 15.9619V21H59.3662V19.9609H59.2842C59.0244 20.501 58.3066 21.1777 57.0146 21.1777ZM57.2266 20.0908C58.5869 20.0908 59.3457 19.1748 59.3457 18.2383V17.1787C59.1406 17.418 57.8008 17.5547 57.3291 17.6162C56.4336 17.7324 55.6475 18.0195 55.6475 18.8877C55.6475 19.6807 56.3105 20.0908 57.2266 20.0908ZM62.7363 21V13.3574H63.9258V14.5332H64.0078C64.2881 13.7607 65.0811 13.248 65.9902 13.248C66.168 13.248 66.4688 13.2617 66.6123 13.2686V14.5059C66.5371 14.4922 66.2021 14.4375 65.874 14.4375C64.7734 14.4375 63.9668 15.1826 63.9668 16.2148V21H62.7363ZM68.2324 21V13.3574H69.4629V21H68.2324ZM68.8545 12.1064C68.3896 12.1064 68 11.7441 68 11.293C68 10.8418 68.3896 10.4795 68.8545 10.4795C69.3262 10.4795 69.7158 10.8418 69.7158 11.293C69.7158 11.7441 69.3262 12.1064 68.8545 12.1064ZM71.4043 21V20.084L75.6904 14.5742V14.499H71.541V13.3574H77.2764V14.335L73.1133 19.7832V19.8584H77.4131V21H71.4043ZM82.3691 21.1641C80.1543 21.1641 78.7871 19.5918 78.7871 17.2402C78.7871 14.8955 80.1406 13.2617 82.2256 13.2617C83.8457 13.2617 85.5547 14.2598 85.5547 17.083V17.5957H79.6211V16.5566H84.8916L84.3174 16.9395C84.3174 15.4355 83.6064 14.3555 82.2256 14.3555C80.8447 14.3555 80.0312 15.4971 80.0312 16.7412V17.4316C80.0312 19.1338 80.9746 20.0703 82.376 20.0703C83.2783 20.0703 83.9551 19.6738 84.2422 18.8945L85.4316 19.2227C85.0762 20.3779 83.9346 21.1641 82.3691 21.1641ZM94.3662 21.1641C92.2881 21.1641 90.8867 19.585 90.8867 17.2266C90.8867 14.834 92.2881 13.2617 94.3662 13.2617C95.8428 13.2617 97.0459 14.041 97.4629 15.374L96.2803 15.709C96.0547 14.9229 95.3711 14.3623 94.3662 14.3623C92.8418 14.3623 92.1377 15.7021 92.1377 17.2266C92.1377 18.7305 92.8418 20.0635 94.3662 20.0635C95.3916 20.0635 96.0889 19.4824 96.3145 18.6553L97.4902 18.9902C97.0801 20.3506 95.8633 21.1641 94.3662 21.1641ZM102.364 21.1641C100.286 21.1641 98.8848 19.585 98.8848 17.2266C98.8848 14.834 100.286 13.2617 102.364 13.2617C104.449 13.2617 105.857 14.834 105.857 17.2266C105.857 19.585 104.449 21.1641 102.364 21.1641ZM102.364 20.0635C103.909 20.0635 104.613 18.7305 104.613 17.2266C104.613 15.709 103.909 14.3623 102.364 14.3623C100.84 14.3623 100.136 15.7021 100.136 17.2266C100.136 18.7305 100.84 20.0635 102.364 20.0635ZM107.648 21V13.3574H108.845L108.852 15.0664H108.756C109.063 13.8291 110 13.2207 110.991 13.2207C112.099 13.2207 112.803 13.9727 113.008 15.0801H112.844C113.117 13.9385 114.129 13.2207 115.346 13.2207C116.672 13.2207 117.752 14.0752 117.752 15.8457V21H116.515V15.8799C116.515 14.7793 115.797 14.3418 114.977 14.3418C113.944 14.3418 113.315 15.0459 113.315 16.0098V21H112.085V15.7568C112.085 14.9092 111.449 14.3418 110.588 14.3418C109.692 14.3418 108.879 14.9707 108.879 16.1875V21H107.648ZM119.912 21V13.3574H121.108L121.115 15.0664H121.02C121.327 13.8291 122.264 13.2207 123.255 13.2207C124.362 13.2207 125.066 13.9727 125.271 15.0801H125.107C125.381 13.9385 126.393 13.2207 127.609 13.2207C128.936 13.2207 130.016 14.0752 130.016 15.8457V21H128.778V15.8799C128.778 14.7793 128.061 14.3418 127.24 14.3418C126.208 14.3418 125.579 15.0459 125.579 16.0098V21H124.349V15.7568C124.349 14.9092 123.713 14.3418 122.852 14.3418C121.956 14.3418 121.143 14.9707 121.143 16.1875V21H119.912ZM135.389 21.1641C133.174 21.1641 131.807 19.5918 131.807 17.2402C131.807 14.8955 133.16 13.2617 135.245 13.2617C136.865 13.2617 138.574 14.2598 138.574 17.083V17.5957H132.641V16.5566H137.911L137.337 16.9395C137.337 15.4355 136.626 14.3555 135.245 14.3555C133.864 14.3555 133.051 15.4971 133.051 16.7412V17.4316C133.051 19.1338 133.994 20.0703 135.396 20.0703C136.298 20.0703 136.975 19.6738 137.262 18.8945L138.451 19.2227C138.096 20.3779 136.954 21.1641 135.389 21.1641ZM141.568 16.4199V21H140.338V13.3574H141.521L141.527 15.21H141.356C141.821 13.8018 142.71 13.2617 143.865 13.2617C145.41 13.2617 146.456 14.2119 146.456 16.1465V21H145.219V16.249C145.219 15.0732 144.562 14.3691 143.496 14.3691C142.396 14.3691 141.568 15.1143 141.568 16.4199ZM151.631 13.3574V14.4102H147.68V13.3574H151.631ZM148.828 11.5391H150.059V19.0176C150.059 19.7012 150.312 20.002 150.961 20.002C151.118 20.002 151.385 19.9609 151.59 19.9199L151.843 20.959C151.59 21.0479 151.241 21.0957 150.927 21.0957C149.607 21.0957 148.828 20.3643 148.828 19.1133V11.5391ZM155.664 21.1641C154.092 21.1641 152.998 20.4668 152.725 19.1475L153.894 18.8672C154.112 19.708 154.734 20.084 155.65 20.084C156.717 20.084 157.4 19.5576 157.4 18.9287C157.4 18.4023 157.031 18.0537 156.279 17.876L155.008 17.5752C153.62 17.2471 152.957 16.5635 152.957 15.4902C152.957 14.1777 154.16 13.2617 155.787 13.2617C157.359 13.2617 158.187 14.0273 158.535 15.1006L157.421 15.3877C157.209 14.8408 156.778 14.3076 155.794 14.3076C154.885 14.3076 154.201 14.7793 154.201 15.415C154.201 15.9824 154.591 16.2969 155.486 16.5088L156.642 16.7822C158.029 17.1104 158.679 17.8008 158.679 18.8467C158.679 20.1865 157.455 21.1641 155.664 21.1641Z" fill="#303030"/>
</svg>

<svg xmlns="http://www.w3.org/2000/svg" width="172" height="32" fill="none"><rect width="171" height="31" x=".5" y=".5" fill="#fff" rx="3.5"/><rect width="171" height="31" x=".5" y=".5" stroke="#BFBFC3" rx="3.5"/><path fill="#303030" d="M16.491 21.178c-2.208 0-3.582-1.135-3.698-2.844h1.333c.103 1.155 1.169 1.682 2.365 1.682 1.381 0 2.434-.725 2.434-1.812 0-.984-.93-1.347-2.017-1.654l-1.23-.349c-1.64-.465-2.598-1.306-2.598-2.659 0-1.723 1.531-2.864 3.5-2.864 2.01 0 3.411 1.169 3.473 2.707H18.78c-.116-.991-1.032-1.559-2.242-1.559-1.32 0-2.194.697-2.194 1.654 0 1.067 1.196 1.443 1.941 1.648l1.019.28c1.093.301 2.884.916 2.884 2.817 0 1.668-1.346 2.953-3.698 2.953Zm8.162-.082c-1.545 0-2.59-.95-2.59-2.885v-4.854h1.23v4.751c0 1.176.663 1.88 1.73 1.88 1.093 0 1.92-.745 1.92-2.05v-4.58h1.238V21h-1.19v-1.852h.164c-.471 1.435-1.38 1.948-2.502 1.948ZM30.348 21v-7.643h1.196l.007 1.71h-.096c.308-1.238 1.244-1.846 2.235-1.846 1.108 0 1.812.752 2.017 1.86h-.164c.273-1.143 1.285-1.86 2.502-1.86 1.326 0 2.406.854 2.406 2.625V21h-1.237v-5.12c0-1.1-.718-1.538-1.538-1.538-1.032 0-1.661.704-1.661 1.668V21h-1.23v-5.243c0-.848-.637-1.415-1.498-1.415-.895 0-1.709.629-1.709 1.845V21h-1.23Zm12.263 0v-7.643h1.197l.007 1.71h-.096c.307-1.238 1.244-1.846 2.235-1.846 1.108 0 1.812.752 2.017 1.86h-.164c.273-1.143 1.285-1.86 2.502-1.86 1.326 0 2.406.854 2.406 2.625V21h-1.238v-5.12c0-1.1-.717-1.538-1.537-1.538-1.033 0-1.662.704-1.662 1.668V21h-1.23v-5.243c0-.848-.636-1.415-1.497-1.415-.896 0-1.71.629-1.71 1.845V21h-1.23Zm14.404.178c-1.45 0-2.605-.848-2.605-2.352 0-1.75 1.559-2.071 2.974-2.249 1.36-.17 1.962-.13 1.962-.697v-.041c0-.95-.54-1.497-1.6-1.497-1.1 0-1.695.588-1.934 1.12l-1.183-.389c.588-1.388 1.9-1.811 3.083-1.811 1.025 0 2.864.314 2.864 2.7V21h-1.21v-1.04h-.082c-.26.541-.977 1.218-2.27 1.218Zm.212-1.087c1.36 0 2.119-.916 2.119-1.853v-1.06c-.205.24-1.545.377-2.017.438-.895.116-1.681.404-1.681 1.272 0 .793.662 1.203 1.579 1.203Zm5.51.909v-7.643h1.189v1.176h.082c.28-.772 1.073-1.285 1.982-1.285.178 0 .479.014.622.02v1.238a4.646 4.646 0 0 0-.738-.069c-1.1 0-1.907.746-1.907 1.778V21h-1.23Zm5.495 0v-7.643h1.23V21h-1.23Zm.623-8.894c-.465 0-.855-.362-.855-.813 0-.451.39-.813.855-.813.471 0 .86.362.86.813 0 .451-.389.813-.86.813ZM71.404 21v-.916l4.285-5.51V14.5h-4.149v-1.142h5.735v.978l-4.163 5.448v.075h4.3V21h-6.009Zm10.964.164c-2.215 0-3.582-1.572-3.582-3.924 0-2.344 1.354-3.978 3.439-3.978 1.62 0 3.329.998 3.329 3.821v.513H79.62v-1.04h5.27l-.574.383c0-1.504-.71-2.584-2.091-2.584-1.381 0-2.195 1.142-2.195 2.386v.69c0 1.703.944 2.64 2.345 2.64.902 0 1.58-.397 1.866-1.177l1.19.329c-.356 1.155-1.497 1.941-3.063 1.941Zm11.997 0c-2.078 0-3.48-1.579-3.48-3.937 0-2.393 1.402-3.965 3.48-3.965 1.477 0 2.68.779 3.097 2.112l-1.183.335c-.225-.786-.909-1.347-1.914-1.347-1.524 0-2.228 1.34-2.228 2.865 0 1.503.704 2.837 2.228 2.837 1.026 0 1.723-.582 1.948-1.409l1.176.335c-.41 1.36-1.627 2.174-3.124 2.174Zm7.998 0c-2.078 0-3.48-1.579-3.48-3.937 0-2.393 1.402-3.965 3.48-3.965 2.085 0 3.493 1.572 3.493 3.965 0 2.358-1.408 3.937-3.493 3.937Zm0-1.1c1.545 0 2.249-1.334 2.249-2.837 0-1.518-.704-2.865-2.249-2.865-1.524 0-2.228 1.34-2.228 2.865 0 1.503.704 2.837 2.228 2.837Zm5.284.936v-7.643h1.197l.007 1.71h-.096c.307-1.238 1.244-1.846 2.235-1.846 1.108 0 1.812.752 2.017 1.86h-.164c.273-1.143 1.285-1.86 2.502-1.86 1.326 0 2.406.854 2.406 2.625V21h-1.237v-5.12c0-1.1-.718-1.538-1.538-1.538-1.033 0-1.662.704-1.662 1.668V21h-1.23v-5.243c0-.848-.636-1.415-1.497-1.415-.896 0-1.709.629-1.709 1.845V21h-1.231Zm12.264 0v-7.643h1.196l.007 1.71h-.095c.307-1.238 1.244-1.846 2.235-1.846 1.107 0 1.811.752 2.016 1.86h-.164c.274-1.143 1.286-1.86 2.502-1.86 1.327 0 2.407.854 2.407 2.625V21h-1.238v-5.12c0-1.1-.717-1.538-1.538-1.538-1.032 0-1.661.704-1.661 1.668V21h-1.23v-5.243c0-.848-.636-1.415-1.497-1.415-.896 0-1.709.629-1.709 1.845V21h-1.231Zm15.477.164c-2.215 0-3.582-1.572-3.582-3.924 0-2.344 1.353-3.978 3.438-3.978 1.62 0 3.329.998 3.329 3.821v.513h-5.933v-1.04h5.27l-.574.383c0-1.504-.711-2.584-2.092-2.584-1.381 0-2.194 1.142-2.194 2.386v.69c0 1.703.943 2.64 2.345 2.64.902 0 1.579-.397 1.866-1.177l1.189.329c-.355 1.155-1.497 1.941-3.062 1.941Zm6.179-4.744V21h-1.23v-7.643h1.183l.006 1.853h-.171c.465-1.408 1.354-1.948 2.509-1.948 1.545 0 2.591.95 2.591 2.884V21h-1.237v-4.751c0-1.176-.657-1.88-1.723-1.88-1.1 0-1.928.745-1.928 2.05Zm10.063-3.063v1.053h-3.951v-1.053h3.951Zm-2.803-1.818h1.231v7.479c0 .683.253.984.902.984.157 0 .424-.041.629-.082l.253 1.039a2.964 2.964 0 0 1-.916.137c-1.32 0-2.099-.732-2.099-1.983V11.54Zm6.836 9.625c-1.572 0-2.666-.697-2.939-2.017l1.169-.28c.218.841.84 1.217 1.756 1.217 1.067 0 1.75-.526 1.75-1.155 0-.527-.369-.875-1.121-1.053l-1.271-.3c-1.388-.329-2.051-1.012-2.051-2.086 0-1.312 1.203-2.228 2.83-2.228 1.572 0 2.4.765 2.748 1.839l-1.114.287c-.212-.547-.643-1.08-1.627-1.08-.909 0-1.593.471-1.593 1.107 0 .567.39.882 1.285 1.094l1.156.273c1.387.328 2.037 1.019 2.037 2.065 0 1.34-1.224 2.317-3.015 2.317Z"/></svg>
